storage/app/icons/phosphoricons/duotone/bus-duotone.svg

<svg xmlns="http://www.w3.org/2000/svg" fill="currentColor" viewBox="0 0 256 256"><path d="M48 184h40v24a8 8 0 0 1-8 8H56a8 8 0 0 1-8-8Zm120 24a8 8 0 0 0 8 8h24a8 8 0 0 0 8-8v-24h-40ZM48 72v40h160V72Z" opacity=".2"/><path d="M184 32H72a32 32 0 0 0-32 32v144a16 16 0 0 0 16 16h24a16 16 0 0 0 16-16v-16h64v16a16 16 0 0 0 16 16h24a16 16 0 0 0 16-16V64a32 32 0 0 0-32-32M56 176v-56h144v56Zm0-96h144v24H56Zm16-32h112a16 16 0 0 1 16 16H56a16 16 0 0 1 16-16m8 160H56v-16h24Zm96 0v-16h24v16Zm-72-60a12 12 0 1 1-12-12 12 12 0 0 1 12 12m72 0a12 12 0 1 1-12-12 12 12 0 0 1 12 12m72-68v24a8 8 0 0 1-16 0V80a8 8 0 0 1 16 0M24 80v24a8 8 0 0 1-16 0V80a8 8 0 0 1 16 0"/></svg>

<svg xmlns="http://www.w3.org/2000/svg" viewBox="0 0 256 256" fill="currentColor"><path d="M48,184H88v24a8,8,0,0,1-8,8H56a8,8,0,0,1-8-8Zm120,24a8,8,0,0,0,8,8h24a8,8,0,0,0,8-8V184H168ZM48,72v40H208V72Z" opacity="0.2"/><path d="M184,32H72A32,32,0,0,0,40,64V208a16,16,0,0,0,16,16H80a16,16,0,0,0,16-16V192h64v16a16,16,0,0,0,16,16h24a16,16,0,0,0,16-16V64A32,32,0,0,0,184,32ZM56,176V120H200v56Zm0-96H200v24H56ZM72,48H184a16,16,0,0,1,16,16H56A16,16,0,0,1,72,48Zm8,160H56V192H80Zm96,0V192h24v16Zm-72-60a12,12,0,1,1-12-12A12,12,0,0,1,104,148Zm72,0a12,12,0,1,1-12-12A12,12,0,0,1,176,148Zm72-68v24a8,8,0,0,1-16,0V80a8,8,0,0,1,16,0ZM24,80v24a8,8,0,0,1-16,0V80a8,8,0,0,1,16,0Z"/></svg>
